staff/modal-close-desktop.svg

<svg width="32" height="32" viewBox="0 0 32 32" fill="none" xmlns="http://www.w3.org/2000/svg">
    <path fill-rule="evenodd" clip-rule="evenodd"
          d="M16.0001 15.293L27.0001 4.29297L27.7072 5.00008L16.7072 16.0001L27.7072 27.0001L27.0001 27.7072L16.0001 16.7072L5.00008 27.7072L4.29297 27.0001L15.293 16.0001L4.29297 5.00008L5.00008 4.29297L16.0001 15.293Z"
          fill="black" />
</svg>

<svg width="32" height="32" fill="none" xmlns="http://www.w3.org/2000/svg">
    <path fill-rule="evenodd" clip-rule="evenodd"
          d="M16 15.293l11-11 .707.707-11 11 11 11-.707.707-11-11-11 11L4.293 27l11-11-11-11L5 4.293l11 11z"
          fill="#000" />
</svg>
